img/dish.svg

<?xml version="1.0" encoding="iso-8859-1"?>
<!-- Generator: Adobe Illustrator 16.0.0, SVG Export Plug-In . SVG Version: 6.00 Build 0)  -->
<!DOCTYPE svg PUBLIC "-//W3C//DTD SVG 1.1//EN" "http://www.w3.org/Graphics/SVG/1.1/DTD/svg11.dtd">
<svg version="1.1" id="Capa_1" xmlns="http://www.w3.org/2000/svg" xmlns:xlink="http://www.w3.org/1999/xlink" x="0px" y="0px"
	 width="329.388px" height="329.388px" viewBox="0 0 329.388 329.388" style="enable-background:new 0 0 329.388 329.388;"
	 xml:space="preserve">
<g>
	<path d="M185.161,263.996c40.734,0,79.03-15.863,107.834-44.666c2.344-2.344,3.661-5.523,3.661-8.84
		c0-3.315-1.317-6.494-3.661-8.838l-53.337-53.338V69.498c0-6.904-5.596-12.5-12.5-12.5h-78.816L95.004,3.661
		c-4.882-4.882-12.796-4.882-17.678,0c-59.459,59.459-59.459,156.208,0,215.668c14.325,14.324,31,25.445,49.153,33.01v52.049h-38
		c-6.902,0-12.5,5.598-12.5,12.5s5.598,12.5,12.5,12.5h101c6.903,0,12.5-5.598,12.5-12.5s-5.597-12.5-12.5-12.5h-38v-44.104
		C162.409,262.736,173.687,263.996,185.161,263.996z M214.658,81.998v41.316l-41.316-41.316H214.658z M86.595,30.607
		l179.458,179.458c-22.749,18.738-51.036,28.931-80.893,28.931c-34.058,0-66.075-13.263-90.156-37.345
		C48.274,154.921,45.473,80.642,86.595,30.607z"/>
</g>
<g>
</g>
<g>
</g>
<g>
</g>
<g>
</g>
<g>
</g>
<g>
</g>
<g>
</g>
<g>
</g>
<g>
</g>
<g>
</g>
<g>
</g>
<g>
</g>
<g>
</g>
<g>
</g>
<g>
</g>
</svg>

<?xml version="1.0" encoding="UTF-8" standalone="no"?>
<!DOCTYPE svg PUBLIC "-//W3C//DTD SVG 1.1//EN" "http://www.w3.org/Graphics/SVG/1.1/DTD/svg11.dtd">
<svg width="100%" height="100%" viewBox="0 0 1200 1200" version="1.1" xmlns="http://www.w3.org/2000/svg" xmlns:xlink="http://www.w3.org/1999/xlink" xml:space="preserve" xmlns:serif="http://www.serif.com/" style="fill-rule:evenodd;clip-rule:evenodd;stroke-linejoin:round;stroke-miterlimit:2;">
    <g transform="matrix(1.15385,0,0,1.30435,-161.538,-286.957)">
        <ellipse cx="660" cy="680" rx="520" ry="460" style="fill:rgb(100,56,114);"/>
    </g>
    <g transform="matrix(2.56536,0,0,2.56536,600,600)">
        <g transform="matrix(1,0,0,1,-164.694,-164.694)">
            <clipPath id="_clip1">
                <rect x="0" y="0" width="329.388" height="329.388"/>
            </clipPath>
            <g clip-path="url(#_clip1)">
                <path d="M185.161,263.996C225.895,263.996 264.191,248.133 292.995,219.33C295.339,216.986 296.656,213.807 296.656,210.49C296.656,207.175 295.339,203.996 292.995,201.652L239.658,148.314L239.658,69.498C239.658,62.594 234.062,56.998 227.158,56.998L148.342,56.998L95.004,3.661C90.122,-1.221 82.208,-1.221 77.326,3.661C17.867,63.12 17.867,159.869 77.326,219.329C91.651,233.653 108.326,244.774 126.479,252.339L126.479,304.388L88.479,304.388C81.577,304.388 75.979,309.986 75.979,316.888C75.979,323.79 81.577,329.388 88.479,329.388L189.479,329.388C196.382,329.388 201.979,323.79 201.979,316.888C201.979,309.986 196.382,304.388 189.479,304.388L151.479,304.388L151.479,260.284C162.409,262.736 173.687,263.996 185.161,263.996ZM214.658,81.998L214.658,123.314L173.342,81.998L214.658,81.998ZM86.595,30.607L266.053,210.065C243.304,228.803 215.017,238.996 185.16,238.996C151.102,238.996 119.085,225.733 95.004,201.651C48.274,154.921 45.473,80.642 86.595,30.607Z" style="fill:white;fill-rule:nonzero;"/>
            </g>
        </g>
    </g>
</svg>
